X:10
T:Cliff Hornpipe (Craig 10), The
M:C|
L:1/8
B:Empire Violin Collection of Hornpipes
H:Published by Thomas Craig
H:Music Publisher, &c.
H:George Street, Aberdeen, N.B.
Z:Peter Dunk December 2011
R:hornpipe
Q:1/4=140
K:D
F>E | D>FA>F D>GB>G | A>Fd>A f>dA>F | G>Bd>g F>Ad>f | (3 efd (3cdB (3ABG (3FGE |!
D>FA>F D>GB>G | A>Fd>A f>dA>F | G>Bd>g (3fed (3edc | d2f2d2 :|!
|: c>d | e>A^G>A f>AG>A | g>ef>d e>A^G>A | g>ef>d e>cd>f | (3 efd (3cdB (3ABG (3FGE |!
D>FA>F D>GB>G | A>Fd>A f>dA>F | G>Bd>g (3fed (3edc | d2f2d2 :|

